img/ico/discount-ico.svg

<svg width="65" height="65" viewBox="0 0 65 65" fill="none" xmlns="http://www.w3.org/2000/svg">
<path d="M40.0496 23.9698C39.9538 23.8707 39.84 23.7921 39.7148 23.7385C39.5896 23.6848 39.4553 23.6572 39.3198 23.6572C39.1842 23.6572 39.05 23.6848 38.9248 23.7385C38.7995 23.7921 38.6858 23.8707 38.59 23.9698L24.1384 38.9051C24.0398 39.0035 23.9611 39.1212 23.907 39.2513C23.8529 39.3815 23.8245 39.5215 23.8233 39.6631C23.8221 39.8048 23.8482 39.9453 23.9001 40.0764C23.952 40.2075 24.0287 40.3266 24.1256 40.4267C24.2225 40.5269 24.3378 40.6061 24.4646 40.6598C24.5915 40.7134 24.7274 40.7404 24.8645 40.7392C25.0015 40.7379 25.137 40.7085 25.2629 40.6526C25.3889 40.5967 25.5028 40.5154 25.598 40.4135L40.0496 25.4783C40.1455 25.3793 40.2215 25.2617 40.2734 25.1323C40.3254 25.0029 40.3521 24.8642 40.3521 24.7241C40.3521 24.584 40.3254 24.4453 40.2734 24.3158C40.2215 24.1864 40.1455 24.0689 40.0496 23.9698Z" fill="#DC3545"/>
<path d="M26.9327 31.1252C27.7494 31.1252 28.5477 30.875 29.2267 30.4061C29.9057 29.9372 30.4349 29.2708 30.7475 28.491C31.06 27.7113 31.1417 26.8533 30.9824 26.0255C30.8231 25.1978 30.4299 24.4374 29.8524 23.8407C29.2749 23.2439 28.5392 22.8375 27.7383 22.6728C26.9373 22.5082 26.1071 22.5927 25.3526 22.9156C24.5981 23.2386 23.9533 23.7856 23.4996 24.4873C23.0459 25.189 22.8037 26.0141 22.8037 26.858C22.8049 27.9894 23.2404 29.074 24.0144 29.874C24.7885 30.674 25.838 31.124 26.9327 31.1252ZM26.9327 24.7244C27.3411 24.7244 27.7402 24.8496 28.0797 25.084C28.4192 25.3184 28.6838 25.6517 28.8401 26.0415C28.9964 26.4314 29.0372 26.8604 28.9576 27.2743C28.8779 27.6882 28.6813 28.0683 28.3926 28.3667C28.1038 28.6651 27.736 28.8683 27.3355 28.9506C26.935 29.033 26.5199 28.9907 26.1427 28.8292C25.7654 28.6677 25.443 28.3943 25.2162 28.0434C24.9893 27.6925 24.8682 27.28 24.8682 26.858C24.8688 26.2923 25.0865 25.75 25.4735 25.35C25.8606 24.95 26.3854 24.725 26.9327 24.7244Z" fill="#DC3545"/>
<path d="M37.255 33.2588C36.4384 33.2588 35.6401 33.5091 34.961 33.9779C34.282 34.4468 33.7528 35.1133 33.4403 35.893C33.1278 36.6727 33.046 37.5307 33.2053 38.3585C33.3646 39.1862 33.7579 39.9466 34.3353 40.5434C34.9128 41.1402 35.6485 41.5466 36.4495 41.7112C37.2504 41.8759 38.0806 41.7914 38.8351 41.4684C39.5896 41.1454 40.2345 40.5985 40.6882 39.8967C41.1419 39.195 41.384 38.37 41.384 37.526C41.3828 36.3947 40.9474 35.31 40.1733 34.51C39.3992 33.71 38.3497 33.2601 37.255 33.2588ZM37.255 39.6596C36.8467 39.6596 36.4475 39.5345 36.108 39.3C35.7685 39.0656 35.5039 38.7324 35.3476 38.3425C35.1914 37.9526 35.1505 37.5236 35.2302 37.1098C35.3098 36.6959 35.5064 36.3157 35.7952 36.0173C36.0839 35.7189 36.4518 35.5157 36.8522 35.4334C37.2527 35.3511 37.6678 35.3933 38.0451 35.5548C38.4223 35.7163 38.7447 35.9898 38.9716 36.3406C39.1984 36.6915 39.3195 37.104 39.3195 37.526C39.319 38.0917 39.1013 38.6341 38.7142 39.0341C38.3272 39.4341 37.8024 39.659 37.255 39.6596Z" fill="#DC3545"/>
<path d="M61.2183 25.8113C60.3642 25.0592 59.7298 24.0761 59.3862 22.9722C59.0426 21.8683 59.0035 20.6872 59.2731 19.5616C59.5585 18.3845 59.5909 17.1571 59.3681 15.9657C59.1453 14.7742 58.6725 13.6477 57.9832 12.6654C57.2939 11.683 56.4047 10.8686 55.3781 10.2796C54.3516 9.69048 53.2126 9.34098 52.0413 9.25564C50.9269 9.16998 49.858 8.76349 48.9557 8.08221C48.0534 7.40093 47.3537 6.47211 46.936 5.40097C46.5024 4.27427 45.8342 3.26001 44.9788 2.43015C44.1234 1.60029 43.1017 0.975184 41.9863 0.599185C40.8709 0.223187 39.689 0.105515 38.5247 0.25452C37.3603 0.403526 36.242 0.815557 35.249 1.46137C34.3026 2.07268 33.2089 2.39674 32.0929 2.39657C30.9768 2.3964 29.8833 2.07201 28.937 1.46041C27.9441 0.815056 26.8258 0.403411 25.6617 0.254675C24.4975 0.105938 23.316 0.223754 22.2008 0.599765C21.0857 0.975776 20.0642 1.60077 19.209 2.43042C18.3537 3.26007 17.6855 4.27405 17.2519 5.40043C16.833 6.47338 16.1315 7.4035 15.2269 8.08523C14.3224 8.76695 13.251 9.17298 12.1345 9.25724C10.963 9.34439 9.82431 9.69578 8.79843 10.2867C7.77255 10.8776 6.88444 11.6937 6.1966 12.6776C5.50876 13.6614 5.03791 14.7891 4.81719 15.9812C4.59646 17.1734 4.63121 18.401 4.91901 19.5778C5.18555 20.7048 5.14297 21.8863 4.79602 22.9897C4.44908 24.093 3.81151 25.0747 2.95483 25.8245C2.05722 26.608 1.3361 27.5847 0.841903 28.6863C0.347706 29.7879 0.0923693 30.9879 0.0937556 32.2021C0.0951419 33.4164 0.353217 34.6156 0.849929 35.7161C1.34664 36.8165 2.06999 37.7914 2.96938 38.5728C3.82337 39.3248 4.45772 40.308 4.80128 41.4118C5.14484 42.5157 5.18404 43.6966 4.91446 44.8222C4.62904 45.9993 4.59661 47.2267 4.81946 48.4181C5.04231 49.6096 5.51502 50.7361 6.20435 51.7184C6.89368 52.7008 7.78289 53.5151 8.80944 54.1042C9.836 54.6933 10.975 55.0428 12.1462 55.1281C13.2606 55.2138 14.3295 55.6203 15.2319 56.3016C16.1342 56.9828 16.8338 57.9117 17.2516 58.9828C17.6851 60.1095 18.3533 61.1238 19.2088 61.9536C20.0642 62.7835 21.0859 63.4086 22.2013 63.7846C23.3167 64.1606 24.4985 64.2783 25.6629 64.1293C26.8272 63.9803 27.9456 63.5682 28.9386 62.9224C29.8847 62.3112 30.978 61.9871 32.0938 61.9871C33.2095 61.9871 34.3028 62.3112 35.249 62.9224L35.8004 62.0206L35.2505 62.9234C36.2435 63.5687 37.3617 63.9804 38.5259 64.1291C39.69 64.2778 40.8716 64.16 41.9867 63.784C43.1019 63.408 44.1233 62.783 44.9786 61.9534C45.8339 61.1237 46.502 60.1097 46.9357 58.9834C47.3546 57.9104 48.0561 56.9803 48.9606 56.2986C49.8652 55.6168 50.9365 55.2108 52.0531 55.1265C53.2245 55.0394 54.3632 54.688 55.3891 54.0971C56.415 53.5061 57.3031 52.69 57.991 51.7062C58.6788 50.7224 59.1496 49.5947 59.3704 48.4025C59.5911 47.2104 59.5563 45.9827 59.2686 44.806C59.002 43.679 59.0446 42.4975 59.3915 41.3942C59.7385 40.2908 60.376 39.3092 61.2327 38.5594C62.1303 37.7759 62.8514 36.7992 63.3456 35.6975C63.8398 34.5959 64.0951 33.396 64.0937 32.1818C64.0924 30.9675 63.8343 29.7683 63.3376 28.6678C62.8409 27.5674 62.1177 26.5927 61.2183 25.8113ZM59.8876 36.941C58.7398 37.9511 57.8868 39.2715 57.4242 40.7544C56.9616 42.2373 56.9078 43.824 57.2687 45.3367C57.4814 46.2114 57.5061 47.1237 57.341 48.0093C57.176 48.8949 56.8251 49.7324 56.3132 50.4628C55.8012 51.1932 55.1406 51.7988 54.3778 52.237C53.6151 52.6752 52.7687 52.9354 51.8981 52.9991C50.3969 53.114 48.9568 53.6611 47.7411 54.5785C46.5254 55.496 45.5826 56.747 45.0197 58.1899C44.6985 59.0262 44.2031 59.7792 43.5686 60.3954C42.9341 61.0116 42.1762 61.4758 41.3485 61.7552C40.5209 62.0346 39.6439 62.1222 38.7798 62.0119C37.9157 61.9016 37.0857 61.596 36.3487 61.1169C35.0726 60.2923 33.5979 59.8551 32.0929 59.8552C30.5879 59.8553 29.1132 60.2927 27.8372 61.1174C27.1003 61.5964 26.2704 61.902 25.4064 62.0122C24.5424 62.1225 23.6655 62.0348 22.838 61.7553C22.0105 61.4759 21.2527 61.0116 20.6184 60.3954C19.9841 59.7792 19.4889 59.0262 19.1679 58.1899C18.6036 56.7455 17.6588 55.4936 16.4409 54.5761C15.2229 53.6586 13.7805 53.1122 12.2772 52.9991C11.4123 52.9373 10.5711 52.6801 9.81285 52.2456C9.05464 51.811 8.39798 51.2098 7.88922 50.4842C7.37172 49.7495 7.01691 48.906 6.84992 48.0137C6.68293 47.1215 6.70785 46.2021 6.92293 45.3209C7.28077 43.8069 7.22355 42.2198 6.75768 40.7375C6.29181 39.2552 5.4357 37.9362 4.28531 36.9285C3.61765 36.3453 3.08137 35.6183 2.71397 34.7985C2.34657 33.9787 2.15694 33.0859 2.15834 32.1824C2.15973 31.2789 2.35212 30.3867 2.72205 29.5681C3.09198 28.7495 3.63051 28.0244 4.29996 27.4433C5.44779 26.4333 6.30078 25.1128 6.76335 23.6299C7.22591 22.147 7.27977 20.5603 6.9189 19.0476C6.70614 18.1729 6.68143 17.2607 6.84651 16.375C7.01159 15.4894 7.36244 14.6519 7.87439 13.9215C8.38633 13.1911 9.04693 12.5855 9.80971 12.1473C10.5725 11.7091 11.4189 11.449 12.2894 11.3852C13.7907 11.2703 15.2308 10.7231 16.4466 9.80556C17.6623 8.88803 18.605 7.63687 19.1679 6.19392C19.4883 5.35697 19.9834 4.60331 20.6178 3.98659C21.2521 3.36986 22.0102 2.90523 22.8382 2.62576C23.6661 2.34629 24.5434 2.25886 25.4077 2.36968C26.272 2.4805 27.1021 2.78685 27.8388 3.26693C29.1148 4.09183 30.5895 4.52926 32.0946 4.52926C33.5997 4.52926 35.0744 4.09183 36.3504 3.26693C37.0872 2.78786 37.9171 2.48233 38.7811 2.37204C39.645 2.26175 40.5219 2.34941 41.3494 2.62879C42.1769 2.90818 42.9347 3.37243 43.569 3.98858C44.2034 4.60473 44.6986 5.35767 45.0197 6.19392C45.584 7.63826 46.5287 8.89023 47.7467 9.80773C48.9647 10.7252 50.4071 11.2715 51.9103 11.3847C52.7752 11.4464 53.6165 11.7037 54.3747 12.1382C55.1329 12.5728 55.7896 13.174 56.2983 13.8995C56.8158 14.6343 57.1707 15.4778 57.3376 16.37C57.5046 17.2623 57.4797 18.1816 57.2646 19.0629C56.9067 20.577 56.964 22.1643 57.43 23.6467C57.8959 25.1291 58.7522 26.4481 59.9028 27.4558C60.5704 28.039 61.1067 28.766 61.4741 29.5858C61.8415 30.4056 62.0311 31.2985 62.0297 32.2019C62.0283 33.1054 61.8359 33.9976 61.466 34.8162C61.0961 35.6348 60.557 36.36 59.8876 36.941Z" fill="#DC3545"/>
<path d="M32.0934 10.856C28.0102 10.856 24.0186 12.1073 20.6236 14.4517C17.2285 16.7962 14.5823 20.1284 13.0198 24.0271C11.4572 27.9257 11.0483 32.2157 11.8449 36.3545C12.6415 40.4932 14.6078 44.295 17.4951 47.2789C20.3823 50.2628 24.061 52.2948 28.0657 53.1181C32.0705 53.9413 36.2215 53.5188 39.9939 51.9039C43.7663 50.2891 46.9907 47.5544 49.2592 44.0457C51.5277 40.537 52.7385 36.4119 52.7385 32.192C52.7322 26.5353 50.5551 21.1122 46.6847 17.1123C42.8144 13.1124 37.5669 10.8625 32.0934 10.856ZM32.0934 51.3944C28.4185 51.3944 24.8261 50.2682 21.7705 48.1582C18.715 46.0483 16.3335 43.0492 14.9271 39.5405C13.5208 36.0317 13.1528 32.1707 13.8698 28.4458C14.5867 24.7209 16.3564 21.2993 18.9549 18.6138C21.5534 15.9283 24.8642 14.0995 28.4685 13.3585C32.0728 12.6176 35.8087 12.9979 39.2039 14.4513C42.599 15.9046 45.5009 18.3659 47.5426 21.5237C49.5843 24.6815 50.674 28.3941 50.674 32.192C50.6685 37.2831 48.7092 42.164 45.2258 45.7639C41.7425 49.3639 37.0196 51.3888 32.0934 51.3944Z" fill="#DC3545"/>
</svg>

<svg width="65" height="65" viewBox="0 0 65 65" fill="currentColor" xmlns="http://www.w3.org/2000/svg" class="svg-icon">
    <path
        d="M40.05 23.97a1.03 1.03 0 0 0-.73-.313 1 1 0 0 0-.73.313L24.138 38.905a1.07 1.07 0 0 0-.315.758 1.1 1.1 0 0 0 .303.764 1.005 1.005 0 0 0 1.472-.013L40.05 25.478a1.07 1.07 0 0 0 .302-.754 1.1 1.1 0 0 0-.302-.754M26.933 31.125c.816 0 1.615-.25 2.294-.719a4.24 4.24 0 0 0 1.52-1.915 4.4 4.4 0 0 0 .235-2.465 4.3 4.3 0 0 0-1.13-2.185 4.1 4.1 0 0 0-2.114-1.168 4 4 0 0 0-2.385.243c-.755.323-1.4.87-1.853 1.571a4.37 4.37 0 0 0-.696 2.371 4.35 4.35 0 0 0 1.21 3.016c.774.8 1.824 1.25 2.919 1.251m0-6.4c.408 0 .807.125 1.147.359s.604.568.76.957a2.2 2.2 0 0 1 .118 1.233c-.08.414-.277.794-.565 1.093a2.05 2.05 0 0 1-1.058.584c-.4.082-.815.04-1.192-.122a2.1 2.1 0 0 1-.927-.786 2.185 2.185 0 0 1 .258-2.693c.387-.4.911-.625 1.459-.626M37.255 33.259c-.817 0-1.615.25-2.294.719a4.24 4.24 0 0 0-1.52 1.915 4.4 4.4 0 0 0-.236 2.465c.16.828.553 1.589 1.13 2.185a4.1 4.1 0 0 0 2.114 1.168c.801.165 1.632.08 2.386-.243s1.4-.87 1.853-1.571a4.37 4.37 0 0 0 .696-2.371 4.35 4.35 0 0 0-1.21-3.016 4.07 4.07 0 0 0-2.919-1.251m0 6.4c-.408 0-.808-.124-1.147-.359a2.1 2.1 0 0 1-.76-.957 2.2 2.2 0 0 1-.118-1.233c.08-.414.276-.794.565-1.093a2.04 2.04 0 0 1 1.057-.584c.4-.082.816-.04 1.193.122.377.161.7.435.927.786a2.185 2.185 0 0 1-.258 2.693c-.387.4-.912.625-1.459.626" />
    <path
        d="M61.218 25.811a6.26 6.26 0 0 1-1.832-2.839 6.44 6.44 0 0 1-.113-3.41 8.6 8.6 0 0 0 .095-3.596 8.45 8.45 0 0 0-1.385-3.3 8.1 8.1 0 0 0-2.605-2.386 7.85 7.85 0 0 0-3.337-1.024 5.87 5.87 0 0 1-3.085-1.174 6.16 6.16 0 0 1-2.02-2.681 8.3 8.3 0 0 0-1.957-2.97A7.95 7.95 0 0 0 41.986.598a7.75 7.75 0 0 0-3.461-.344 7.8 7.8 0 0 0-3.276 1.206 5.8 5.8 0 0 1-3.156.936 5.8 5.8 0 0 1-3.156-.937A7.8 7.8 0 0 0 25.662.255 7.75 7.75 0 0 0 22.2.6a7.95 7.95 0 0 0-2.992 1.83 8.3 8.3 0 0 0-1.957 2.97 6.16 6.16 0 0 1-2.025 2.685 5.87 5.87 0 0 1-3.093 1.172 7.85 7.85 0 0 0-3.336 1.03 8.1 8.1 0 0 0-2.601 2.39 8.45 8.45 0 0 0-1.38 3.304 8.6 8.6 0 0 0 .102 3.597 6.44 6.44 0 0 1-.123 3.412 6.26 6.26 0 0 1-1.841 2.835 8.3 8.3 0 0 0-2.113 2.861 8.6 8.6 0 0 0-.748 3.516 8.6 8.6 0 0 0 .756 3.514 8.3 8.3 0 0 0 2.12 2.857A6.26 6.26 0 0 1 4.8 41.412a6.44 6.44 0 0 1 .113 3.41 8.6 8.6 0 0 0-.095 3.596 8.45 8.45 0 0 0 1.385 3.3 8.1 8.1 0 0 0 2.605 2.386 7.85 7.85 0 0 0 3.337 1.024 5.87 5.87 0 0 1 3.086 1.174 6.16 6.16 0 0 1 2.02 2.68 8.3 8.3 0 0 0 1.957 2.972 7.94 7.94 0 0 0 2.992 1.83 7.75 7.75 0 0 0 3.462.345 7.8 7.8 0 0 0 3.276-1.207 5.8 5.8 0 0 1 3.155-.935c1.115 0 2.209.324 3.155.935l.551-.901-.55.902a7.8 7.8 0 0 0 3.276 1.206 7.75 7.75 0 0 0 3.46-.345 7.95 7.95 0 0 0 2.993-1.83 8.3 8.3 0 0 0 1.957-2.97 6.16 6.16 0 0 1 2.025-2.685 5.87 5.87 0 0 1 3.092-1.172 7.85 7.85 0 0 0 3.336-1.03 8.1 8.1 0 0 0 2.602-2.39 8.45 8.45 0 0 0 1.38-3.304 8.6 8.6 0 0 0-.102-3.597 6.44 6.44 0 0 1 .123-3.412 6.26 6.26 0 0 1 1.84-2.835 8.3 8.3 0 0 0 2.114-2.861 8.6 8.6 0 0 0 .748-3.516 8.6 8.6 0 0 0-.756-3.514 8.3 8.3 0 0 0-2.12-2.857m-1.33 11.13a8.4 8.4 0 0 0-2.464 3.813 8.66 8.66 0 0 0-.155 4.583c.212.874.237 1.787.072 2.672a6.3 6.3 0 0 1-1.028 2.454 6.04 6.04 0 0 1-1.935 1.774 5.8 5.8 0 0 1-2.48.762 7.9 7.9 0 0 0-4.157 1.58 8.3 8.3 0 0 0-2.721 3.61 6.14 6.14 0 0 1-1.451 2.206 5.9 5.9 0 0 1-2.22 1.36 5.75 5.75 0 0 1-2.57.257 5.8 5.8 0 0 1-2.43-.895 7.84 7.84 0 0 0-4.256-1.262c-1.505 0-2.98.438-4.256 1.262a5.8 5.8 0 0 1-2.43.895c-.865.11-1.741.023-2.569-.257a5.9 5.9 0 0 1-2.22-1.36 6.1 6.1 0 0 1-1.45-2.205 8.3 8.3 0 0 0-2.727-3.614A7.9 7.9 0 0 0 12.277 53a5.8 5.8 0 0 1-2.464-.753 6 6 0 0 1-1.924-1.762 6.3 6.3 0 0 1-1.04-2.47 6.4 6.4 0 0 1 .074-2.693 8.66 8.66 0 0 0-.165-4.584 8.4 8.4 0 0 0-2.473-3.809 6.2 6.2 0 0 1-1.571-2.13 6.38 6.38 0 0 1 .008-5.23A6.2 6.2 0 0 1 4.3 27.443c1.148-1.01 2-2.33 2.463-3.813a8.66 8.66 0 0 0 .156-4.582 6.4 6.4 0 0 1-.072-2.673 6.3 6.3 0 0 1 1.027-2.453 6.04 6.04 0 0 1 1.936-1.775 5.8 5.8 0 0 1 2.48-.762 7.9 7.9 0 0 0 4.157-1.58 8.3 8.3 0 0 0 2.72-3.611c.321-.837.816-1.59 1.45-2.207a5.9 5.9 0 0 1 2.221-1.361 5.74 5.74 0 0 1 2.57-.256c.864.11 1.694.417 2.43.897a7.83 7.83 0 0 0 4.257 1.262c1.505 0 2.98-.437 4.255-1.262a5.8 5.8 0 0 1 2.431-.895 5.75 5.75 0 0 1 2.568.257c.828.28 1.586.743 2.22 1.36a6.1 6.1 0 0 1 1.45 2.205 8.3 8.3 0 0 0 2.728 3.614 7.9 7.9 0 0 0 4.163 1.577 5.8 5.8 0 0 1 2.465.753 6 6 0 0 1 1.923 1.761 6.3 6.3 0 0 1 1.04 2.471 6.4 6.4 0 0 1-.073 2.693 8.66 8.66 0 0 0 .165 4.584 8.4 8.4 0 0 0 2.473 3.809 6.2 6.2 0 0 1 1.571 2.13 6.38 6.38 0 0 1-.008 5.23 6.2 6.2 0 0 1-1.578 2.125" />
    <path
        d="M32.093 10.856a20.17 20.17 0 0 0-11.47 3.596c-3.395 2.344-6.04 5.676-7.603 9.575a22 22 0 0 0-1.175 12.328c.797 4.138 2.763 7.94 5.65 10.924s6.566 5.016 10.57 5.84c4.006.822 8.156.4 11.929-1.215s6.997-4.35 9.265-7.858a21.85 21.85 0 0 0 3.48-11.854c-.007-5.657-2.184-11.08-6.054-15.08s-9.118-6.25-14.592-6.256m0 40.538a18.16 18.16 0 0 1-10.323-3.236c-3.055-2.11-5.436-5.109-6.843-8.617a19.8 19.8 0 0 1-1.057-11.095c.717-3.725 2.486-7.147 5.085-9.832s5.91-4.514 9.514-5.256c3.604-.74 7.34-.36 10.735 1.093 3.395 1.454 6.297 3.915 8.339 7.073a19.66 19.66 0 0 1 3.131 10.668c-.005 5.091-1.965 9.972-5.448 13.572s-8.206 5.625-13.133 5.63" />
</svg>
